packages/core/src/svgs/tokens/branded/DASH.svg

<svg width="24" height="24" viewBox="0 0 24 24" fill="none" xmlns="http://www.w3.org/2000/svg">
<path d="M17.8668 10.9094C17.7627 11.7072 17.601 12.4966 17.3829 13.2711C16.7376 15.6456 14.389 16.5103 12.1241 16.5167H5.48437C5.47147 16.5167 5.46503 16.5362 5.46503 16.5489L4.75524 20.356C4.75524 20.3754 4.76815 20.3882 4.78105 20.3882H12.2983C13.0684 20.3918 13.8379 20.3444 14.6019 20.2462C15.6213 20.1107 16.6022 19.7753 17.5248 19.2398C19.7059 17.9815 20.9447 15.6585 21.5254 13.2324C21.8093 12.0257 21.9771 10.845 21.9965 9.70284C22.0416 8.03806 21.6609 6.30878 20.3962 5.16666C19.4479 4.37706 18.2873 3.88543 17.0602 3.75355C16.4343 3.66056 15.8024 3.61312 15.1696 3.6116H7.66535C7.65244 3.6116 7.64599 3.6116 7.64599 3.63095L7.033 7.48314H13.9049C14.9438 7.48314 16.8344 7.50895 17.4475 8.43811C17.9119 9.14788 17.9571 10.1029 17.8604 10.9094H17.8668ZM4.039 10.1351C3.13564 10.3287 2.61945 10.9933 2.41296 11.9225C2.26194 12.5907 2.12427 13.2619 2 13.9357H9.42037C9.7108 13.9357 9.94959 13.9227 10.1431 13.8905C10.5262 13.8389 10.8861 13.6772 11.1792 13.4253C11.4723 13.1734 11.6863 12.8419 11.795 12.471C11.8594 12.2839 11.9111 12.1097 11.9498 11.9353C12.0818 11.3135 12.2045 10.6898 12.3176 10.0642H4.60684C4.42617 10.0642 4.23903 10.0899 4.039 10.1286V10.1351Z" fill="#008DE4"/>
</svg>

<svg xmlns="http://www.w3.org/2000/svg" width="24" height="24" fill="none" viewBox="0 0 24 24">
    <path fill="#008DE4" d="M17.867 10.91a17 17 0 0 1-.484 2.361c-.645 2.375-2.994 3.24-5.259 3.246h-6.64c-.013 0-.019.02-.019.032l-.71 3.807c0 .02.013.032.026.032h7.517q1.156.006 2.304-.142c1.02-.135 2-.47 2.923-1.006 2.18-1.258 3.42-3.581 4-6.008.284-1.206.452-2.387.472-3.53.045-1.664-.336-3.393-1.6-4.535a6.26 6.26 0 0 0-3.337-1.413 13 13 0 0 0-1.89-.142H7.665c-.013 0-.019 0-.019.019l-.613 3.852h6.872c1.039 0 2.93.026 3.543.955.464.71.51 1.665.412 2.471zm-13.828-.775c-.903.194-1.42.858-1.626 1.787Q2.186 12.926 2 13.936h7.42q.434.002.723-.046a2 2 0 0 0 1.652-1.419c.064-.187.116-.361.155-.536q.198-.933.368-1.87H4.607c-.18 0-.368.025-.568.064z"/>
</svg>
